svg/fluentui-system-icons/ic_fluent_table_freeze_column_and_row_20_filled.svg

<svg width="20" height="20" viewBox="0 0 20 20" fill="none" xmlns="http://www.w3.org/2000/svg">
<path d="M5.5 3C4.11929 3 3 4.11929 3 5.5V14.5C3 15.8807 4.11929 17 5.5 17L12 17V13H8V16H5.5C4.67157 16 4 15.3284 4 14.5V5.5C4 4.67157 4.67157 4 5.5 4H14.5C15.3284 4 16 4.67157 16 5.5L16 8H13V12H17L17 5.5C17 4.11929 15.8807 3 14.5 3H5.5ZM14.5 17H13V13H17V14.5C17 15.8807 15.8807 17 14.5 17ZM8 12H12V8H8V12Z" fill="#212121"/>
</svg>

<svg xmlns="http://www.w3.org/2000/svg" width="20" height="20"><path d="M5.5 3A2.5 2.5 0 0 0 3 5.5v9A2.5 2.5 0 0 0 5.5 17H12v-4H8v3H5.5A1.5 1.5 0 0 1 4 14.5v-9A1.5 1.5 0 0 1 5.5 4h9A1.5 1.5 0 0 1 16 5.5V8h-3v4h4V5.5A2.5 2.5 0 0 0 14.5 3h-9Zm9 14H13v-4h4v1.5a2.5 2.5 0 0 1-2.5 2.5ZM8 12h4V8H8v4Z"/></svg>
